svgs/sharp-thin/waveform-lines.svg

<svg xmlns="http://www.w3.org/2000/svg" viewBox="0 0 640 512"><!--! Font Awesome Pro 6.6.0 by @fontawesome - https://fontawesome.com License - https://fontawesome.com/license (Commercial License) Copyright 2024 Fonticons, Inc. --><path d="M328 0l0 8 0 496 0 8-16 0 0-8L312 8l0-8 16 0zM520 64l0 8 0 368 0 8-16 0 0-8 0-368 0-8 16 0zM232 96l0 8 0 304 0 8-16 0 0-8 0-304 0-8 16 0zm192 32l0 8 0 240 0 8-16 0 0-8 0-240 0-8 16 0zM136 192l0 8 0 112 0 8-16 0 0-8 0-112 0-8 16 0zM40 224l0 8 0 48 0 8-16 0 0-8 0-48 0-8 16 0zm576 0l0 8 0 48 0 8-16 0 0-8 0-48 0-8 16 0z"/></svg>

<svg xmlns="http://www.w3.org/2000/svg" viewBox="0 0 640 512"><!--! Font Awesome Pro 6.5.2 by @fontawesome - https://fontawesome.com License - https://fontawesome.com/license (Commercial License) Copyright 2024 Fonticons, Inc. --><path d="M328 0V8 504v8H312v-8V8 0h16zM520 64v8V440v8H504v-8V72 64h16zM232 96v8V408v8H216v-8V104 96h16zm192 32v8V376v8H408v-8V136v-8h16zM136 192v8V312v8H120v-8V200v-8h16zM40 224v8 48 8H24v-8V232v-8H40zm576 0v8 48 8H600v-8V232v-8h16z"/></svg>
